!!!COM: Scriabin, Alexander
!!!OTL@@FR: Prélude en sol dièse mineur
!!!OTL@@EN: Prelude in G# Minor
!!!OPR@@FR: 4 Préludes
!!!OPR@@EN: 4 Preludes
!!!OPS: 22
!!!ONM: 1
!!!ODT: 1897
!!!AGN: Prelude
**kern	**kern	**dynam
*staff2	*staff1	*staff1/2
*Ipiano	*Ipiano	*
*clefF4	*clefG2	*
*k[f#c#g#d#a#]	*k[f#c#g#d#a#]	*
*g#:	*g#:	*
*M3/4	*M3/4	*
=1	=1	=1
!	!	!LO:DY:b=1
8r	8dd#	p
!	!	!LO:DY:a=2
8DD#	8r	pp
8GG#L	4..dd#	.
8D#	.	.
8B	.	.
8g#J	.	.
.	16dd#	.
=2	=2	=2
8r	4dd#	<
8DD#	.	(
8AA#L	4..cc#	(
8F#	.	(
8A#	.	(
8f#J	.	(
.	16b	[
=3	=3	=3
8r	2dd#	>
8DD#	.	)
8BBL	.	)
8G#	.	)
8G#	8.g#L	)
8eJ	.	)
.	16f##XJk	]
=4	=4	=4
8r	2.a#	.
8DD#	.	.
8AA#L	.	.
8F##X	.	.
8A#	.	.
8d#J	.	.
=5	=5	=5
8r	8g#	.
!	!	!LO:DY:a=2
8DD#	8r	p
!	!	!LO:DY:b=1
8C#L	4..gg#	mf
8G#	.	.
8e	.	.
8cc#J	.	.
.	16gg#	.
!!LO:LB:g=original
=6	=6	=6
8r	4gg#	<
8DD#	.	(
8D#L	4..ff#	(
8B	.	(
8d#	.	(
8bJ	.	(
.	16ee	[
=7	=7	=7
8r	2gg#	>
8DD#	.	)
8EL	.	)
8c#	.	)
8c#	8.cc#L	)
8anJ	.	)
.	16b#XJk	]
=8	=8	=8
8r	2.dd#	.
8DD#	.	.
8D#L	.	.
8B#X	.	.
8g#	.	.
8GG#J	.	.
=9	=9	=9
8r	8cc#	p
8EE	8r	.
8AAnL	4..g#	.
8E	.	.
8c#	.	.
8cc#J	.	.
.	16g#	.
=10	=10	=10
8r	4g#	<
8DD#	.	.
8AAnL	4..f#	.
8F#	.	.
8c#	.	.
8cc#J	.	.
.	16e	.
!!LO:LB:g=original
=11	=11	=11
8r	4f#	.
8CC#	.	.
8FF#L	4..f#	.
8E	.	.
8An	.	.
8anJ	.	.
.	16f#	.
=12	=12	=12
8r	4f#	.
8CCn	.	.
8FF#L	4..e	.
8E	.	.
8An	.	.
8anJ	.	.
.	16f#	.
=13	=13	=13
8r	2g#	f
8BBB	.	.
8EEL	.	.
8E	.	.
8G#	4d#	.
8g#J	.	.
=14	=14	=14
8r	4c##X	.
8AAA#	.	.
8AA#L	4a#	.
8E	.	.
8c##X	4g#	>
8a#J	.	.
=15	=15	=15
8r	2.g#	>
8DD#	.	)
8AA#L	.	)
8E	.	)
8A#	.	)
8c##XJ	.	]
=16	=16	=16
8r	2.f##X	.
8DD#	.	.
8AA#L	.	.
8D#	.	.
8A#	.	.
8d#J	.	.
!!LO:LB:g=original
=17	=17	=17
8r	4g#	p
8EE	.	.
8AAnL	4..g#	.
8E	.	.
8c#	.	.
8cc#J	.	.
.	16g#	.
=18	=18	=18
8r	4g#	.
8DD#	.	.
8AAnL	4..f#	<
8F#	.	.
8c#	.	.
8cc#J	.	.
.	16e	.
=19	=19	=19
8r	4g#	.
8CC#	.	.
8FF#L	4..f#	.
8E	.	.
8An	.	.
8anJ	.	.
.	16e	.
=20	=20	=20
8r	2.f#	>
8CCn	.	)
8FF#L	.	)
8E	.	)
8An	.	)
8anJ	.	]
=21	=21	=21
8r	4e	.
8CCn	.	.
8FFnL	4..e	mf
8E	.	.
8An	.	.
8anJ	.	.
.	16e	.
!!LO:LB:g=original
=22	=22	=22
8r	4e	.
8BBB	.	.
8FFnL	4..dn	<
8Dn	.	.
8An	.	.
8anJ	.	.
.	16cn	.
=23	=23	=23
8r	4e	.
8AAAn	.	.
8DDnL	4..dn	.
8Cn	.	.
8Fn	.	.
8fnJ	.	.
.	16cn	.
=24	=24	=24
8r	2.dn	.
8GGG#	.	.
8DDnL	.	.
8Cn	.	.
8Fn	.	.
8fnJ	.	.
=25	=25	=25
8r	4cn	f
8GGG#	.	.
8DD#XL	4..B#X	.
8D#	.	.
8D#	.	.
8d#J	.	.
.	16B#	.
=26	=26	=26
8r	4B#X	.
8FFF##X	.	.
8FF##XL	4Bn	<
8D#	.	.
8D#	4b	.
8d#J	.	.
=27	=27	=27
8r	4a#	.
8FFF#X	.	.
8FF#XL	4..A#	.
8D#	.	.
8D#	.	.
8d#J	.	.
.	16A#	.
!!LO:LB:g=original
=28	=28	=28
8r	4A#	.
8EEE	.	.
8EEL	4G#	.
8AA#	.	.
8G#	4c##X 4g# 4cc##X	.
8c##XJ	.	.
=29	=29	=29
*	*^	*
8r	2.d# 2.g#	4dd#	ff
8DDD# 8DD#	.	.	.
8GG#L	.	4..dd#	.
8D#	.	.	.
8B	.	.	.
8g#J	.	.	.
.	.	16dd#	.
=30	=30	=30	=30
8r	2.d# 2.f#	4dd#	.
8DDD# 8DD#	.	.	.
8AA#L	.	4..cc#	.
8F#	.	.	.
8A#	.	.	.
8f#J	.	.	.
.	.	16b	.
=31	=31	=31	=31
8r	2e 2g#	2dd#	.
8DDD# 8DD#	.	.	.
8BBL	.	.	.
8G#	.	.	.
8G#	4B 4e	8.g#L	.
8eJ	.	.	.
.	.	16f##XJk	.
*	*v	*v	*
=32	=32	=32
8r	2.A# 2.d# 2.f##X 2.a#	.
8DDD# 8DD#	.	.
8AA#L	.	.
8F##XJ	.	.
4d#	.	.
==	==	==
*-	*-	*-
!!!system-decoration: {(*)}
!!!filter: flipper -a
!!!RDF**dynam: > = dim.
!!!ENC: Bryan Jacob Bell
!!!END: November 2021 to April 2022
!!!PED: Konstantin Igumnov and Yakov Milstein
!!!PTL: A.N. Skryabin: Polnoe sobranie sochinenii dlia fortepiano (Muzgiz)
!!!URL-pdf: https://github.com/bel28kent/Mysterium/blob/main/reference_editions/op22.pdf
